src/Widgets/ImageWidget/thumbnail.svg

<svg xmlns="http://www.w3.org/2000/svg" fill="none" viewBox="0 0 150 100"><g clip-path="url(#a)" opacity=".75"><g fill="#AAA" opacity=".55"><path d="M131.64 10H19a4 4 0 0 0-4 4v71.19a4 4 0 0 0 4 4h112.64a4 4 0 0 0 4-4V14a4 4 0 0 0-4-4"/><path d="M131.64 11c1.65 0 3 1.35 3 3v71.19c0 1.65-1.35 3-3 3H19c-1.65 0-3-1.35-3-3V14c0-1.65 1.35-3 3-3zm0-2H19c-2.76 0-5 2.24-5 5v71.19c0 2.76 2.24 5 5 5h112.64c2.76 0 5-2.24 5-5V14c0-2.76-2.24-5-5-5"/></g><path fill="#fff" d="M91.83 47.87c5.457 0 9.88-4.423 9.88-9.88s-4.423-9.88-9.88-9.88-9.88 4.423-9.88 9.88 4.423 9.88 9.88 9.88" opacity=".45"/><path fill="#AAA" d="m72.1 90.19 26.58-26.72a9.15 9.15 0 0 1 12.98 0l18.95 19.05 5.38 5.2a4.95 4.95 0 0 1-4.29 2.47H72.04" opacity=".65"/><path fill="#AAA" d="M97.64 90.19H19.27A5.27 5.27 0 0 1 14 84.92v-6.84c0-.07.03-.14.08-.19l1-.97 27.63-27.63a10.363 10.363 0 0 1 14.66 0l40.88 40.88h-.61z"/></g><defs><clipPath id="a"><path fill="#fff" d="M14 9h122.64v81.19H14z"/></clipPath></defs></svg>

<svg viewBox="0 0 150 100" fill="none" xmlns="http://www.w3.org/2000/svg">
<g id="image">
<g id="Ebene_1" opacity="0.75" clip-path="url(#clip0_5_185)">
<g id="Group" opacity="0.55">
<path id="Vector" d="M131.64 10H19C16.7909 10 15 11.7909 15 14V85.19C15 87.3991 16.7909 89.19 19 89.19H131.64C133.849 89.19 135.64 87.3991 135.64 85.19V14C135.64 11.7909 133.849 10 131.64 10Z" fill="#AAAAAA"/>
<path id="Vector_2" d="M131.64 11C133.29 11 134.64 12.35 134.64 14V85.19C134.64 86.84 133.29 88.19 131.64 88.19H19C17.35 88.19 16 86.84 16 85.19V14C16 12.35 17.35 11 19 11H131.64ZM131.64 9H19C16.24 9 14 11.24 14 14V85.19C14 87.95 16.24 90.19 19 90.19H131.64C134.4 90.19 136.64 87.95 136.64 85.19V14C136.64 11.24 134.4 9 131.64 9Z" fill="#AAAAAA"/>
</g>
<path id="Vector_3" opacity="0.45" d="M91.83 47.87C97.2866 47.87 101.71 43.4466 101.71 37.99C101.71 32.5334 97.2866 28.11 91.83 28.11C86.3734 28.11 81.95 32.5334 81.95 37.99C81.95 43.4466 86.3734 47.87 91.83 47.87Z" fill="white"/>
<path id="Vector_4" opacity="0.65" d="M72.1 90.19L98.68 63.47C102.26 59.87 108.08 59.87 111.66 63.47L130.61 82.52L135.99 87.72C135.13 89.2 133.53 90.19 131.7 90.19H72.04" fill="#AAAAAA"/>
<path id="Vector_5" d="M97.64 90.19H19.27C16.36 90.19 14 87.83 14 84.92V78.08C14 78.01 14.03 77.94 14.08 77.89L15.08 76.92L42.71 49.29C46.76 45.24 53.32 45.24 57.37 49.29L98.25 90.17H97.64V90.19Z" fill="#AAAAAA"/>
</g>
</g>
<defs>
<clipPath id="clip0_5_185">
<rect width="122.64" height="81.19" fill="white" transform="translate(14 9)"/>
</clipPath>
</defs>
</svg>
